src/assets/illustrations/hand.svg

<svg width="40" height="40" viewBox="0 0 40 40" fill="none" xmlns="http://www.w3.org/2000/svg">
<path d="M7.31221 16.211C5.78657 16.1686 4.05453 15.3606 2.73047 14.625" stroke="#544339" stroke-width="1.125" stroke-linecap="round"/>
<path d="M14.8911 7.22393C14.1947 5.27407 13.6029 3.24707 13.1289 1.23242" stroke="#544339" stroke-width="1.125" stroke-linecap="round"/>
<path d="M23.3477 7.22388C24.1086 5.53883 25.0444 4.11734 26.3434 2.81836" stroke="#544339" stroke-width="1.125" stroke-linecap="round"/>
<path d="M31.1016 16.2115C33.1873 15.1388 35.1884 13.9037 37.2693 12.8633" stroke="#544339" stroke-width="1.125" stroke-linecap="round"/>
<path d="M18.9415 38.4159C18.9415 36.9452 19.1775 35.2811 17.8842 34.265C17.0447 33.6054 16.1149 32.2299 15.515 31.3573C14.556 29.9624 13.3245 28.8276 12.2843 27.4902C11.1834 26.0748 9.72416 24.378 9.07317 22.6931C8.78893 21.9574 8.58846 20.4414 9.68994 20.4414C10.6584 20.4414 11.1327 20.8571 11.7165 21.5868C12.2833 22.2954 12.7556 22.9687 13.4395 23.6525C14.016 24.229 14.6142 24.8762 15.0647 25.5518" stroke="#544339" stroke-width="1.125" stroke-linecap="round"/>
<path d="M15.1436 25.5551C14.0658 24.118 12.5404 19.8297 11.9244 18.1516C11.3123 16.4843 10.8938 14.3308 10.8279 12.5517C10.7633 11.8287 10.8902 11.2552 11.4359 11.1541C12.1133 11.0283 12.6896 10.8162 13.4712 12.3363C14.7146 14.754 15.9607 17.1391 17.1718 19.5614C17.5207 20.259 18.2877 22.3794 18.6311 23.0662" stroke="#544339" stroke-width="1.125" stroke-linecap="round"/>
<path d="M18.5527 23.1909C18.5527 21.3413 17.8797 19.457 17.5737 17.6212C17.3352 16.1903 16.8698 14.6616 16.8296 13.2156C16.8082 12.4453 16.8293 9.69102 18.638 10.1412C19.313 10.3663 19.7626 11.3785 19.9876 12.2785C20.5501 14.0785 20.7613 14.9652 21.0981 16.2114C21.5084 17.7296 22.0024 19.2588 22.4296 20.754C22.5968 21.3394 23.1412 22.2412 23.1412 22.8534" stroke="#544339" stroke-width="1.125" stroke-linecap="round"/>
<path d="M23.1702 22.9079C23.1702 19.8219 22.7266 16.2268 24.3157 13.4018C24.6379 12.8288 25.7254 11.0159 26.8504 11.2657C28.0879 11.5404 27.5254 13.7409 27.3114 14.4591C26.9629 15.9909 26.8293 17.4157 26.4793 18.8548C26.0883 20.4624 25.6373 22.3229 25.6373 23.9652" stroke="#544339" stroke-width="1.125" stroke-linecap="round"/>
<path d="M18.5898 38.7681C20.6564 38.7681 22.0023 38.5276 23.524 37.0059" stroke="#544339" stroke-width="1.125" stroke-linecap="round"/>
<path d="M25.8379 24.0181C25.8379 22.4624 27.0719 21.9073 27.9917 20.8853C28.2917 20.552 30.1938 19.3096 30.3805 19.828C30.9269 21.3458 29.2318 23.2591 28.442 24.3706C26.7964 26.6866 26.1138 31.3429 28.305 33.534" stroke="#544339" stroke-width="1.125" stroke-linecap="round"/>
</svg>

<svg width="40" height="40" fill="none" xmlns="http://www.w3.org/2000/svg"><path d="M7.312 16.211c-1.525-.042-3.257-.85-4.582-1.586m12.161-7.401a56.169 56.169 0 0 1-1.762-5.992m10.219 5.992c.76-1.685 1.696-3.107 2.995-4.406m4.759 13.394c2.085-1.073 4.086-2.308 6.167-3.349M18.942 38.416c0-1.47.235-3.135-1.058-4.151-.84-.66-1.77-2.035-2.369-2.908-.959-1.395-2.19-2.53-3.23-3.867-1.102-1.415-2.56-3.112-3.212-4.797-.284-.736-.485-2.252.617-2.252.968 0 1.443.416 2.027 1.146.566.708 1.039 1.382 1.723 2.066.576.576 1.174 1.223 1.625 1.899m.079.003c-1.078-1.437-2.604-5.725-3.22-7.403-.612-1.668-1.03-3.821-1.096-5.6-.065-.723.062-1.297.608-1.398.677-.126 1.254-.338 2.035 1.182 1.244 2.418 2.49 4.803 3.7 7.225.35.698 1.117 2.818 1.46 3.505" stroke="#544339" stroke-width="1.125" stroke-linecap="round"/><path d="M18.553 23.19c0-1.849-.673-3.733-.98-5.569-.238-1.43-.703-2.96-.743-4.405-.022-.77 0-3.525 1.808-3.075.675.225 1.125 1.238 1.35 2.137.562 1.8.773 2.687 1.11 3.933.41 1.519.904 3.048 1.332 4.543.167.585.711 1.487.711 2.1m.03.054c0-3.086-.444-6.681 1.145-9.506.322-.573 1.41-2.386 2.534-2.136 1.238.274.675 2.475.461 3.193-.348 1.532-.482 2.957-.832 4.396-.39 1.607-.842 3.468-.842 5.11M18.59 38.768c2.066 0 3.412-.24 4.934-1.762m2.314-12.988c0-1.556 1.234-2.11 2.154-3.133.3-.333 2.202-1.575 2.389-1.057.546 1.518-1.15 3.431-1.939 4.543-1.646 2.316-2.328 6.972-.137 9.163" stroke="#544339" stroke-width="1.125" stroke-linecap="round"/></svg>
